cssgg/share.svg

<svg
  width="24"
  height="24"
  viewBox="0 0 24 24"
  fill="none"
  xmlns="http://www.w3.org/2000/svg"
>
  <path
    d="M18 9C19.6569 9 21 7.65685 21 6C21 4.34315 19.6569 3 18 3C16.3431 3 15 4.34315 15 6C15 6.12549 15.0077 6.24919 15.0227 6.37063L8.08261 9.84066C7.54305 9.32015 6.80891 9 6 9C4.34315 9 3 10.3431 3 12C3 13.6569 4.34315 15 6 15C6.80891 15 7.54305 14.6798 8.08261 14.1593L15.0227 17.6294C15.0077 17.7508 15 17.8745 15 18C15 19.6569 16.3431 21 18 21C19.6569 21 21 19.6569 21 18C21 16.3431 19.6569 15 18 15C17.1911 15 16.457 15.3202 15.9174 15.8407L8.97733 12.3706C8.99229 12.2492 9 12.1255 9 12C9 11.8745 8.99229 11.7508 8.97733 11.6294L15.9174 8.15934C16.457 8.67985 17.1911 9 18 9Z"
    fill="currentColor"
  />
</svg>

<svg viewBox="0 0 24 24" xmlns="http://www.w3.org/2000/svg"><path d="M18 9c1.65 0 3-1.35 3-3 0-1.66-1.35-3-3-3 -1.66 0-3 1.34-3 3 0 .12 0 .24.02.37L8.07 9.84c-.54-.53-1.28-.85-2.09-.85 -1.66 0-3 1.34-3 3 0 1.65 1.34 3 3 3 .8 0 1.54-.33 2.08-.85L15 17.61c-.02.12-.03.24-.03.37 0 1.65 1.34 3 3 3 1.65 0 3-1.35 3-3 0-1.66-1.35-3-3-3 -.81 0-1.55.32-2.09.84l-6.95-3.48c.01-.13.02-.25.02-.38s-.01-.25-.03-.38l6.94-3.48c.53.52 1.27.84 2.08.84Z"/></svg>
